X: 0401
T: Torryburn Lassies
P: Torryburn Lassies
C:Aird 1782
R:Reel (8x32)
B:RSCDS 4-1
Z:Anselm Lingnau <anselm@strathspey.org>
M:C
L:1/8
K:G
|:D|"G"G2BG Bdd2|"C"c2ec egg2|"G"G2BG Bcdg|"C"ed"Am"cB "D7"A2"G"Gz|
    "G"G2BG Bdd2|"C"c2ec egg2|"G"G2BG "Em"Bcdg|"Am"edcB "D7"A2"G"Gz||
    "G"g2bg "D7"afed|"C"edef "G"gdBG|"G"g2bg "D7"afed|"Am"ed"D"ef "G"g2 ga|
    "G"ba"D7"gf "G"gfed|"C"ed"D7"ef "G"gdBG|\
           "Am"cB"G"cd "C"efge|"G"dBGB "D7"A2"G"G:|
%%center Book04/0401-Torryburn_Lassies-AL.abc

%%sep 1 1 500
%%sep 1 1 500

